mon-pix/public/images/pix-logo.svg

<?xml version="1.0" encoding="UTF-8"?>
<svg width="204px" height="154px" viewBox="0 0 204 154" version="1.1" xmlns="http://www.w3.org/2000/svg" xmlns:xlink="http://www.w3.org/1999/xlink">
  <!-- Generator: Sketch 63.1 (92452) - https://sketch.com -->
  <title>6. logos/logos--pix/couleur</title>
  <desc>Created with Sketch.</desc>
  <defs>
    <linearGradient x1="50%" y1="0%" x2="50%" y2="100%" id="linearGradient-1">
      <stop stop-color="#12A3FF" offset="0%"></stop>
      <stop stop-color="#3D68FF" offset="100%"></stop>
    </linearGradient>
    <linearGradient x1="34.3466553%" y1="0%" x2="65.6533447%" y2="100%" id="linearGradient-2">
      <stop stop-color="#FFBE00" offset="0%"></stop>
      <stop stop-color="#FF9F00" offset="100%"></stop>
    </linearGradient>
    <linearGradient x1="50%" y1="0%" x2="50%" y2="73.0493975%" id="linearGradient-3">
      <stop stop-color="#12A3FF" offset="0%"></stop>
      <stop stop-color="#3D68FF" offset="100%"></stop>
    </linearGradient>
    <linearGradient x1="50%" y1="28.3619163%" x2="50%" y2="100%" id="linearGradient-4">
      <stop stop-color="#12A3FF" offset="0%"></stop>
      <stop stop-color="#3D68FF" offset="100%"></stop>
    </linearGradient>
  </defs>
  <g id="6.-logos/logos--pix/couleur" stroke="none" stroke-width="1" fill="none" fill-rule="evenodd">
    <path d="M177.874325,84.5772144 L201.192085,113.47581 C205.424313,118.980482 205.222522,120 198.169108,120 L195.750607,120 C188.697193,120 186.0772,118.572796 181.844973,113.47581 L181.844973,113.47581 L169,97.655 L172.063362,93.8831333 C174.789134,90.692692 176.726122,87.611866 177.874325,84.5772144 Z M198.440455,36.0005235 C205.227016,36.0272375 205.369349,37.0910071 201.192085,42.5241898 L201.192085,42.5241898 L177.874318,71.4227666 C176.726112,68.3881148 174.789121,65.3072885 172.063345,62.1168467 L169,58.344 L181.844973,42.5241898 C185.997347,37.5233738 188.597752,36.0551632 195.356052,36.0015393 L195.750607,36 Z" id="Combined-Shape" fill="url(#linearGradient-1)"></path>
    <path d="M168.117904,120 C175.233258,120 175.43682,118.980482 171.167427,113.47581 L146.771238,83.5048229 C144.941585,81.2622459 143.924976,79.4270533 143.924976,77.999849 C143.924976,76.3688016 144.941585,74.5339109 146.771238,72.4951771 L171.167427,42.5241898 C175.43682,37.0195179 175.233258,36 168.117904,36 L165.678164,36 C158.56281,36 155.919809,37.4272043 151.650416,42.5241898 L132.946752,65.3591559 C125.017749,74.5339109 125.017749,81.4660891 132.946752,90.6408441 L151.650416,113.47581 C155.919809,118.572796 158.56281,120 165.678164,120 L168.117904,120 Z" id="Page-1" fill="url(#linearGradient-2)" transform="translate(150.500000, 78.000000) scale(-1, 1) translate(-150.500000, -78.000000) "></path>
    <path d="M0,146.425666 C0,152.485133 1.51642604,154 7.58213022,154 L9.60383735,154 C15.6695415,154 17.1859676,152.485133 17.1859676,146.425666 L17.1859676,111.247515 C21.7352457,118.48505 29.9913754,122.18809 41.9540654,122.18809 C65.3741641,122.18809 77,109.900902 77,85.4950722 L77,70.8514576 C77,46.4453362 64.5317376,35 38.4156408,35 C14.1531155,35 0,46.782135 0,70.8514576 L0,146.425666 Z M59.6456054,85.8315798 C59.6456054,99.9701418 54.9279002,105.861355 38.5843592,105.861355 C21.9036727,105.861355 17.1859676,99.801888 17.1859676,85.8315798 L17.1859676,71.3562191 C17.1859676,57.2176571 22.2408182,51.1581902 38.5843592,51.1581902 C55.2647543,51.1581902 59.6456054,57.2176571 59.6456054,71.3562191 L59.6456054,85.8315798 Z" id="Fill-1" fill="url(#linearGradient-3)"></path>
    <path d="M93.9506491,112.412999 C93.9506491,118.4826 95.4447327,120 101.421067,120 L103.578933,120 C109.555267,120 111.049351,118.4826 111.049351,112.412999 L111.049351,43.9620358 C111.049351,37.8924349 109.555267,36.3750346 103.578933,36.3750346 L101.421067,36.3750346 C95.4447327,36.3750346 93.9506491,37.8924349 93.9506491,43.9620358 L93.9506491,112.412999 Z M95.1125546,18.1665233 C99.2629145,22.2128268 105.903031,22.2128268 109.887445,18.1665233 C114.037518,13.951393 114.037518,7.20765115 109.887445,3.1613477 C105.903031,-1.05378257 99.2629145,-1.05378257 95.1125546,3.1613477 C90.9624818,7.20765115 90.9624818,13.951393 95.1125546,18.1665233 L95.1125546,18.1665233 Z" id="Fill-2" fill="url(#linearGradient-4)"></path>
  </g>
</svg>

<svg width="204" height="154" xmlns="http://www.w3.org/2000/svg">
  <title>Logo Pix</title>
    <defs>
        <linearGradient x1="50%" y1="0%" x2="50%" y2="100%" id="a">
            <stop stop-color="#12A3FF" offset="0%"/>
            <stop stop-color="#3D68FF" offset="100%"/>
        </linearGradient>
        <linearGradient x1="34.347%" y1="0%" x2="65.653%" y2="100%" id="b">
            <stop stop-color="#FFBE00" offset="0%"/>
            <stop stop-color="#FF9F00" offset="100%"/>
        </linearGradient>
        <linearGradient x1="50%" y1="0%" x2="50%" y2="73.049%" id="c">
            <stop stop-color="#12A3FF" offset="0%"/>
            <stop stop-color="#3D68FF" offset="100%"/>
        </linearGradient>
        <linearGradient x1="50%" y1="28.362%" x2="50%" y2="100%" id="d">
            <stop stop-color="#12A3FF" offset="0%"/>
            <stop stop-color="#3D68FF" offset="100%"/>
        </linearGradient>
    </defs>
    <g fill="none" fill-rule="evenodd">
        <path d="M177.874 84.577l23.318 28.899c4.232 5.504 4.03 6.524-3.023 6.524h-2.418c-7.054 0-9.674-1.427-13.906-6.524L169 97.655l3.063-3.772c2.726-3.19 4.663-6.271 5.811-9.306zm20.566-48.576c6.787.026 6.93 1.09 2.752 6.523l-23.318 28.899c-1.148-3.035-3.085-6.116-5.81-9.306L169 58.344l12.845-15.82c4.152-5 6.753-6.469 13.511-6.522l.395-.002z" fill="url(#a)"/>
        <path d="M168.118 120c7.115 0 7.319-1.02 3.05-6.524L146.77 83.505c-1.83-2.243-2.846-4.078-2.846-5.505 0-1.631 1.017-3.466 2.846-5.505l24.396-29.97c4.27-5.505 4.066-6.525-3.05-6.525h-2.439c-7.115 0-9.758 1.427-14.028 6.524L132.947 65.36c-7.93 9.175-7.93 16.107 0 25.282l18.703 22.835c4.27 5.097 6.913 6.524 14.028 6.524h2.44z" fill="url(#b)" transform="matrix(-1 0 0 1 301 0)"/>
        <path d="M0 146.426C0 152.486 1.516 154 7.582 154h2.022c6.066 0 7.582-1.515 7.582-7.574v-35.178c4.55 7.237 12.805 10.94 24.768 10.94 23.42 0 35.046-12.287 35.046-36.693V70.851C77 46.445 64.532 35 38.416 35 14.153 35 0 46.782 0 70.851v75.575zm59.646-60.594c0 14.138-4.718 20.03-21.062 20.03-16.68 0-21.398-6.06-21.398-20.03V71.356c0-14.138 5.055-20.198 21.398-20.198 16.68 0 21.062 6.06 21.062 20.198v14.476z" fill="url(#c)"/>
        <path d="M93.95 112.413c0 6.07 1.495 7.587 7.471 7.587h2.158c5.976 0 7.47-1.517 7.47-7.587V43.962c0-6.07-1.494-7.587-7.47-7.587h-2.158c-5.976 0-7.47 1.517-7.47 7.587v68.451zm1.163-94.246c4.15 4.046 10.79 4.046 14.774 0 4.15-4.216 4.15-10.96 0-15.006-3.984-4.215-10.624-4.215-14.774 0-4.15 4.047-4.15 10.79 0 15.006z" fill="url(#d)"/>
    </g>
</svg>
